T: Captain Norman Orr-Ewing March
M: 4/4
L: 1/8
K: Dmaj
g |fa fd | A2 d>B | A>B df | fe eg |
fa fd | A2 d>g | f2 e>f | d2 d ||  ~ ?
